icon/pk/file-settings-one.svg

<svg viewBox="0 0 48 48" fill="none" xmlns="http://www.w3.org/2000/svg" height="1em" width="1em">
  <path d="M40 23V14L31 4H10C8.89543 4 8 4.89543 8 6V42C8 43.1046 8.89543 44 10 44H22" stroke="black" stroke-width="4" stroke-linecap="round" stroke-linejoin="round"/>
  <circle cx="34" cy="36" r="5" fill="#2F88FF" stroke="black" stroke-width="4"/>
  <path d="M34 28V31" stroke="black" stroke-width="4" stroke-linecap="round" stroke-linejoin="round"/>
  <path d="M34 41V44" stroke="black" stroke-width="4" stroke-linecap="round" stroke-linejoin="round"/>
  <path d="M39.8281 30L37.7068 32.1213" stroke="black" stroke-width="4" stroke-linecap="round" stroke-linejoin="round"/>
  <path d="M29.8281 40L27.7068 42.1213" stroke="black" stroke-width="4" stroke-linecap="round" stroke-linejoin="round"/>
  <path d="M28 30L30.1213 32.1213" stroke="black" stroke-width="4" stroke-linecap="round" stroke-linejoin="round"/>
  <path d="M38 40L40.1213 42.1213" stroke="black" stroke-width="4" stroke-linecap="round" stroke-linejoin="round"/>
  <path d="M26 36H27.5H29" stroke="black" stroke-width="4" stroke-linecap="round" stroke-linejoin="round"/>
  <path d="M39 36H40.5H42" stroke="black" stroke-width="4" stroke-linecap="round" stroke-linejoin="round"/>
  <path d="M30 4V14H40" stroke="black" stroke-width="4" stroke-linecap="round" stroke-linejoin="round"/>
</svg>

<svg width="48" height="48" fill="none" xmlns="http://www.w3.org/2000/svg"><path d="M40 23v-9L31 4H10a2 2 0 0 0-2 2v36a2 2 0 0 0 2 2h12" stroke="#000" stroke-width="4" stroke-linecap="round" stroke-linejoin="round"/><circle cx="34" cy="36" r="5" fill="#2F88FF" stroke="#000" stroke-width="4"/><path d="M34 28v3M34 41v3M39.828 30l-2.121 2.121M29.828 40l-2.121 2.121M28 30l2.121 2.121M38 40l2.121 2.121M26 36h3M39 36h3M30 4v10h10" stroke="#000" stroke-width="4" stroke-linecap="round" stroke-linejoin="round"/></svg>
